379
albertroad.htmlalbertroad.htmlalbertroad.htmlalbertroad.htmlalbertroad.htmlalbertroad.htmlalbertroad.htmlalbertroad.htmlalbertroad.htmlJames Kelly
albertroad.htmlFrom <I>James Kelly: Traditional Irish Music</I>



albertroad.html

T:Molly Rankin's
M:4/4
L:1/8
C:John Morris Rankin
R:reel
D:James Kelly: Traditional Irish Music
Z:Devin McCabe
K:D
Addc ~d3f | edef e~B3 | Addc defg | afdf e2dB |
!Addc ~d3f | edef edBd | ~a3f edef |1 defd efdB :|2 defd e/2f/2e fg |:
!aA (3AAA afef | abaf edef | aA (3AAA afef | defd e2fg | aA (3AAA afef |
!abaf edef | g2fg efdB |1 defd (3efe fg :|2 defd edBc ||

%  ABC2Win Version 2.1 1/20/2001



albertroad.htmlalbertroad.htmlalbertroad.htmlalbertroad.htmlalbertroad.htmlalbertroad.html
0

